static/images/icons/noun_Twelve Triangles_327786.svg

<svg enable-background="new 0 0 32 32" height="100" viewBox="0 0 32 32" width="100" xmlns="http://www.w3.org/2000/svg"><path d="m22.734 7.174 6.199-3.587-6.199-3.587z"/><path d="m22.734 15.449 6.199-3.587-6.199-3.587z"/><path d="m22.734 23.725 6.199-3.587-6.199-3.587z"/><path d="m22.734 32 6.199-3.587-6.199-3.587z"/><path d="m12.901 7.174 6.198-3.587-6.198-3.587z"/><path d="m12.901 15.449 6.198-3.587-6.198-3.587z"/><path d="m12.901 23.725 6.198-3.587-6.198-3.587z"/><path d="m12.901 32 6.198-3.587-6.198-3.587z"/><path d="m3.067 7.174 6.199-3.587-6.199-3.587z"/><path d="m3.067 15.449 6.199-3.587-6.199-3.587z"/><path d="m3.067 23.725 6.199-3.587-6.199-3.587z"/><path d="m3.067 32 6.199-3.587-6.199-3.587z"/></svg>

<svg height='100px' width='100px'  fill="#000000" xmlns="http://www.w3.org/2000/svg" xmlns:xlink="http://www.w3.org/1999/xlink" version="1.1" x="0px" y="0px" viewBox="0 0 32 32" enable-background="new 0 0 32 32" xml:space="preserve"><g display="none"><rect x="-331.333" y="-186.672" display="inline" fill="#000000" width="473.333" height="236"></rect></g><g display="none"><g display="inline"><g><g><polygon fill="#000000" points="28.933,3.587 22.734,7.174 22.734,0     "></polygon></g><g><polygon points="28.933,11.862 22.734,15.449 22.734,8.275     "></polygon></g><g><polygon fill="#000000" points="28.933,20.138 22.734,23.725 22.734,16.551     "></polygon></g><g><polygon points="28.933,28.413 22.734,32 22.734,24.826     "></polygon></g></g><g><g><polygon points="19.1,3.587 12.9,7.174 12.9,0     "></polygon></g><g><polygon fill="#000000" points="19.1,11.862 12.9,15.449 12.9,8.275     "></polygon></g><g><polygon points="19.1,20.138 12.9,23.725 12.9,16.551     "></polygon></g><g><polygon fill="#000000" points="19.1,28.413 12.9,32 12.9,24.826     "></polygon></g></g><g><g><polygon fill="#000000" points="9.266,3.587 3.067,7.174 3.067,0     "></polygon></g><g><polygon points="9.266,11.862 3.067,15.449 3.067,8.275     "></polygon></g><g><polygon fill="#000000" points="9.266,20.138 3.067,23.725 3.067,16.551     "></polygon></g><g><polygon points="9.266,28.413 3.067,32 3.067,24.826     "></polygon></g></g></g></g><g display="none"><g display="inline"><path fill="#000000" d="M23.734,1.734l3.202,1.853L23.734,5.44V1.734 M22.734,0v7.174l6.199-3.587L22.734,0L22.734,0z"></path></g><g display="inline"><path fill="#000000" d="M23.734,10.009l3.202,1.853l-3.202,1.853V10.009 M22.734,8.275v7.174l6.199-3.587L22.734,8.275    L22.734,8.275z"></path></g><g display="inline"><path fill="#000000" d="M23.734,18.285l3.202,1.853l-3.202,1.853V18.285 M22.734,16.551v7.174l6.199-3.587L22.734,16.551    L22.734,16.551z"></path></g><g display="inline"><path fill="#000000" d="M23.734,26.56l3.202,1.853l-3.202,1.853V26.56 M22.734,24.826V32l6.199-3.587L22.734,24.826L22.734,24.826    z"></path></g><g display="inline"><path fill="#000000" d="M13.9,1.734l3.202,1.853L13.9,5.44V1.734 M12.9,0v7.174L19.1,3.587L12.9,0L12.9,0z"></path></g><g display="inline"><path fill="#000000" d="M13.9,10.009l3.202,1.853L13.9,13.715V10.009 M12.9,8.275v7.174l6.199-3.587L12.9,8.275L12.9,8.275z"></path></g><g display="inline"><path fill="#000000" d="M13.9,18.285l3.202,1.853L13.9,21.991V18.285 M12.9,16.551v7.174l6.199-3.587L12.9,16.551L12.9,16.551z"></path></g><g display="inline"><path fill="#000000" d="M13.9,26.56l3.202,1.853L13.9,30.266V26.56 M12.9,24.826V32l6.199-3.587L12.9,24.826L12.9,24.826z"></path></g><g display="inline"><path fill="#000000" d="M4.067,1.734L7.27,3.587L4.067,5.44V1.734 M3.067,0v7.174l6.199-3.587L3.067,0L3.067,0z"></path></g><g display="inline"><path fill="#000000" d="M4.067,10.009l3.202,1.853l-3.202,1.853V10.009 M3.067,8.275v7.174l6.199-3.587L3.067,8.275L3.067,8.275z"></path></g><g display="inline"><path fill="#000000" d="M4.067,18.285l3.202,1.853l-3.202,1.853V18.285 M3.067,16.551v7.174l6.199-3.587L3.067,16.551    L3.067,16.551z"></path></g><g display="inline"><path fill="#000000" d="M4.067,26.56l3.202,1.853l-3.202,1.853V26.56 M3.067,24.826V32l6.199-3.587L3.067,24.826L3.067,24.826z"></path></g></g><g display="none"><g display="inline"><circle fill="#000000" cx="16" cy="16" r="16"></circle></g><g display="inline"><g><polygon fill="#000000" points="23.233,0.867 27.935,3.587 23.233,6.307    "></polygon></g><g><path d="M23.734,1.734l3.202,1.853L23.734,5.44V1.734 M22.734,0v7.174l6.199-3.587L22.734,0L22.734,0z"></path></g></g><g display="inline"><g><polygon fill="#000000" points="23.233,9.142 27.935,11.862 23.233,14.583    "></polygon></g><g><path d="M23.734,10.009l3.202,1.853l-3.202,1.853V10.009 M22.734,8.275v7.174l6.199-3.587L22.734,8.275L22.734,8.275z"></path></g></g><g display="inline"><g><polygon fill="#000000" points="23.233,17.418 27.935,20.137 23.233,22.857    "></polygon></g><g><path d="M23.734,18.285l3.202,1.853l-3.202,1.853V18.285 M22.734,16.551v7.174l6.199-3.587L22.734,16.551L22.734,16.551z"></path></g></g><g display="inline"><g><polygon fill="#000000" points="23.233,25.693 27.935,28.413 23.233,31.132    "></polygon></g><g><path d="M23.734,26.56l3.202,1.853l-3.202,1.853V26.56 M22.734,24.826V32l6.199-3.587L22.734,24.826L22.734,24.826z"></path></g></g><g display="inline"><g><polygon fill="#000000" points="13.4,0.867 18.102,3.587 13.4,6.307    "></polygon></g><g><path d="M13.9,1.734l3.202,1.853L13.9,5.44V1.734 M12.9,0v7.174L19.1,3.587L12.9,0L12.9,0z"></path></g></g><g display="inline"><g><polygon fill="#000000" points="13.4,9.142 18.102,11.862 13.4,14.583    "></polygon></g><g><path d="M13.9,10.009l3.202,1.853L13.9,13.715V10.009 M12.9,8.275v7.174l6.199-3.587L12.9,8.275L12.9,8.275z"></path></g></g><g display="inline"><g><polygon fill="#000000" points="13.4,17.418 18.102,20.137 13.4,22.857    "></polygon></g><g><path d="M13.9,18.285l3.202,1.853L13.9,21.991V18.285 M12.9,16.551v7.174l6.199-3.587L12.9,16.551L12.9,16.551z"></path></g></g><g display="inline"><g><polygon fill="#000000" points="13.4,25.693 18.102,28.413 13.4,31.132    "></polygon></g><g><path d="M13.9,26.56l3.202,1.853L13.9,30.266V26.56 M12.9,24.826V32l6.199-3.587L12.9,24.826L12.9,24.826z"></path></g></g><g display="inline"><g><polygon fill="#000000" points="3.567,0.867 8.269,3.587 3.567,6.307    "></polygon></g><g><path d="M4.067,1.734L7.27,3.587L4.067,5.44V1.734 M3.067,0v7.174l6.199-3.587L3.067,0L3.067,0z"></path></g></g><g display="inline"><g><polygon fill="#000000" points="3.567,9.142 8.269,11.862 3.567,14.583    "></polygon></g><g><path d="M4.067,10.009l3.202,1.853l-3.202,1.853V10.009 M3.067,8.275v7.174l6.199-3.587L3.067,8.275L3.067,8.275z"></path></g></g><g display="inline"><g><polygon fill="#000000" points="3.567,17.418 8.269,20.137 3.567,22.857    "></polygon></g><g><path d="M4.067,18.285l3.202,1.853l-3.202,1.853V18.285 M3.067,16.551v7.174l6.199-3.587L3.067,16.551L3.067,16.551z"></path></g></g><g display="inline"><g><polygon fill="#000000" points="3.567,25.693 8.269,28.413 3.567,31.132    "></polygon></g><g><path d="M4.067,26.56l3.202,1.853l-3.202,1.853V26.56 M3.067,24.826V32l6.199-3.587L3.067,24.826L3.067,24.826z"></path></g></g></g><g><g><polygon points="22.734,7.174 28.933,3.587 22.734,0   "></polygon><polygon points="22.734,15.449 28.933,11.862 22.734,8.275   "></polygon><polygon points="22.734,23.725 28.933,20.138 22.734,16.551   "></polygon><polygon points="22.734,32 28.933,28.413 22.734,24.826   "></polygon><polygon points="12.901,7.174 19.099,3.587 12.901,0   "></polygon><polygon points="12.901,15.449 19.099,11.862 12.901,8.275   "></polygon><polygon points="12.901,23.725 19.099,20.138 12.901,16.551   "></polygon><polygon points="12.901,32 19.099,28.413 12.901,24.826   "></polygon><polygon points="3.067,7.174 9.266,3.587 3.067,0   "></polygon><polygon points="3.067,15.449 9.266,11.862 3.067,8.275   "></polygon><polygon points="3.067,23.725 9.266,20.138 3.067,16.551   "></polygon><polygon points="3.067,32 9.266,28.413 3.067,24.826   "></polygon></g></g></svg>
